epam-assets/icon-sources/18/editor-chart-areaspline.svg

<svg width="18" height="18" viewBox="0 0 18 18" fill="none" xmlns="http://www.w3.org/2000/svg">
<g id="18/editor-chart-areaspline">
<path id="icon" fill-rule="evenodd" clip-rule="evenodd" d="M13.0875 11.3849L16.5 5.4824V14.2499V15.7499H1.5V2.2499H3V11.6549L7.125 4.4999L12 7.3349L15.18 1.8374L16.4775 2.5874L12.555 9.3749L7.6725 6.5624L3.2325 14.2499H4.9275L8.22 8.5799L13.0875 11.3849Z" fill="#6C6F80"/>
</g>
</svg>

<svg xmlns="http://www.w3.org/2000/svg" width="18" height="18" fill="none" viewBox="0 0 18 18">
  <path fill="#6C6F80" fill-rule="evenodd" d="M13.088 11.385 16.5 5.482V15.75h-15V2.25H3v9.405L7.125 4.5 12 7.335l3.18-5.498 1.297.75-3.922 6.788-4.882-2.813-4.44 7.688h1.695L8.22 8.58l4.867 2.805Z" clip-rule="evenodd"/>
</svg>
